X: 33519
T: Raining Up
R: slip jig
M: 9/8
K: Eminor
|:E3 BEB e3|E3 BEB AFD|E3 BEB e2f|1 fge dBG FAD:|2 fge dBG FED||
|:GAB dBG d3|B3 dBG FED|GAB dBG d2f|1 fge dBG FAD:|2 fge dBG FED||

